z_dist/img/icons/interface/segment-24.svg

<svg width="64" height="64" viewBox="0 0 64 64" fill="none" xmlns="http://www.w3.org/2000/svg">
<path d="M29.6583 33H19.4583V30.72L23.3703 26.688C24.5543 25.472 25.3863 24.52 25.8663 23.832C26.3463 23.144 26.5863 22.392 26.5863 21.576C26.5863 20.744 26.3543 20.152 25.8903 19.8C25.4263 19.448 24.6663 19.272 23.6103 19.272C22.6183 19.272 21.5223 19.384 20.3223 19.608L19.7223 19.704L19.5543 17.592C21.1063 17.128 22.7143 16.896 24.3783 16.896C27.6903 16.896 29.3463 18.368 29.3463 21.312C29.3463 22.464 29.0903 23.464 28.5783 24.312C28.0823 25.16 27.1863 26.184 25.8903 27.384L22.5063 30.672H29.6583V33Z" fill="#111111"/>
<path d="M40.8079 33V30.168H33.6799V28.128L37.8559 17.16H40.8079L36.3919 27.84H40.8079V23.184H43.4959V27.84H45.2239V30.168H43.4959V33H40.8079Z" fill="#111111"/>
<path d="M16 43L6 38.2265V49.7735L16 45V43ZM48 45L58 49.7735V38.2265L48 43V45ZM15 45H49V43H15V45Z" fill="#111111"/>
</svg>

<svg width="64" height="64" fill="none" xmlns="http://www.w3.org/2000/svg"><path d="M29.658 33h-10.2v-2.28l3.912-4.032c1.184-1.216 2.016-2.168 2.496-2.856.48-.688.72-1.44.72-2.256 0-.832-.232-1.424-.696-1.776-.464-.352-1.224-.528-2.28-.528-.992 0-2.088.112-3.288.336l-.6.096-.168-2.112a16.75 16.75 0 014.824-.696c3.312 0 4.968 1.472 4.968 4.416 0 1.152-.256 2.152-.768 3-.496.848-1.392 1.872-2.688 3.072l-3.384 3.288h7.152V33zm11.15 0v-2.832H33.68v-2.04l4.176-10.968h2.952l-4.416 10.68h4.416v-4.656h2.688v4.656h1.728v2.328h-1.728V33h-2.688zM16 43L6 38.227v11.547L16 45v-2zm32 2l10 4.773V38.227L48 43v2zm-33 0h34v-2H15v2z" fill="#111"/></svg>
